X:1
T:When There’s Love at Home
T:When There’s Love at Home
T:John Hugh McNaughton
T:John Hugh McNaughton, 1860
T:Public Domain Courtesy of the Cyber Hymnal™
T:Public Domain Courtesy of the Cyber Hymnal™
C:John Hugh McNaughton
Z:Public Domain
Z:Courtesy of the Cyber Hymnal™
%%score ( 1 2 ) ( 3 4 )
L:1/8
Q:1/4=110
M:4/4
K:Ab
V:1 treble 
V:2 treble 
V:3 bass 
V:4 bass 
V:1
 [CE]2 [Ec]2 [Ec]2 [DB]2 | [FA]2 [DF]2 [CA]4 | [CE]3 [DF] [CE]2 [Ec]2 | [EB]6 z2 | %4
w: 1.~There is beau- ty|all a- round,|When there’s love at|home;|
w: 2.~In the cot- tage|there is joy,|When there’s love at|home;|
w: 3.~Kind- ly Heav- en|smiles a- bove,|When there’s love at|home;|
w: 4.~Je- sus, show Thy|mer- cy mine,|Then there’s love at|home;|
 [Ec]3 [Ed] [Ae]2 [Ec]2 | [FA]2 [DF]2 [FA]4 | E2 [Ec]2 [DB]3 [Ec] | [CA]6 z2 | %8
w: There is joy in|ev- ’ry sound,|When there’s love at|home.|
w: Hate and en- vy|ne’er an- noy,|When there’s love at|home.|
w: All the earth is|filled with love,|When there’s love at|home.|
w: Sweet- ly whis- per|I am Thine,|Then there’s love at|home.|
 [EG]2 [GB]2 [GB]2 [EB]2 | [CA]3 [DB] [Ec]4 | [DF]2 [FA]2 [FA]2 [DA]2 | [B,G]3 [EA] [EB]4 | %12
w: Peace and plen- ty|here a- bide,|Smil- ing sweet on|ev- ’ry side;|
w: Ros- es blos- som|’neath our feet,|All the earth’s a|gar- den sweet,|
w: Sweet- er sings the|brook- let by,|Bright- er beams the|a- zure sky:|
w: Source of love, Thy|cheer- ing light|Far ex- ceeds the|sun so bright—|
 [Ac]3 [Bd] [ce]2 [Ac]2 | [FA]2 [DF]2 [FA]4 | E2 [Ec]2 [DB]3 [EB] | [CA]6 z2 | [DF]4 [Fd]4 | %17
w: Time doth soft- ly,|sweet- ly glide,|When there’s love at|home;|Love at|
w: Mak- ing life a|bliss com- plete,|When there’s love at|home;|Love at|
w: Oh, there’s One who|smiles on high,|When there’s love at|home;|Love at|
w: Can dis- pel the|gloom of night;|Then there’s love at|home;|Love at|
 [Ec]6 z2 | [Ec]4 [FA]4 | [Ge]6 z2 | [Ac]3 [Bd] [ce]2 [Ac]2 | [FA]2 [DF]2 [FA]4 | %22
w: home,|love at|home,|Time doth soft- ly,|sweet- ly glide,|
w: home,|love at|home,|Mak- ing life a|bliss com- plete,|
w: home,|love at|home,|Oh, there’s One who|smiles on high,|
w: home,|love at|home,|Can dis- pel the|gloom of night;|
 E2 [Ee]2 !fermata![Ed]2 !fermata![EG]2 | [EA]6 z2 |] %24
w: When there’s love at|home.|
w: When there’s love at|home.|
w: When there’s love at|home.|
w: Then there’s love at|home.|
V:2
 x8 | x8 | x8 | x8 | x8 | x8 | E2 x6 | x8 | x8 | x8 | x8 | x8 | x8 | x8 | E2 x6 | x8 | x8 | x8 | %18
 x8 | x8 | x8 | x8 | E2 x6 | x8 |] %24
V:3
 [A,,A,]2 [A,,A,]2 [A,,A,]2 [A,,A,]2 | [D,A,]2 [D,A,]2 [A,,A,]4 | %2
 [A,,A,]3 [A,,A,] [A,,A,]2 [A,,A,]2 | [E,G,]6 z2 | [A,,A,]3 [A,,B,] [A,,C]2 [A,,A,]2 | %5
 [D,A,]2 [D,A,]2 [D,A,]4 | E,2 [E,A,]2 [E,G,]3 [E,G,] | [A,,A,]6 z2 | E,2 E,2 E,2 [E,G,]2 | %9
 [A,,A,]3 [A,,A,] [A,,A,]4 | [D,A,]2 [D,A,]2 [D,A,]2 [D,F,]2 | E,3 [E,F,] [E,G,]4 | %12
 [A,,A,]3 [A,,A,] [A,,A,]2 [A,,A,]2 | [D,A,]2 [D,A,]2 [D,A,]4 | E,2 [E,A,]2 [E,G,]3 [E,G,] | %15
 [A,,A,]6 z2 | [D,A,]4 [D,A,]4 | [A,,A,]6 z2 | [A,,A,]4 [F,A,]4 | [E,B,]6 z2 | A,3 A, A,2 A,2 | %21
 [D,A,]2 [D,A,]2 [D,A,]4 | [E,G,]2 [E,G,]2 [E,B,]2 [E,D]2 | [A,,C]6 z2 |] %24
V:4
 x8 | x8 | x8 | x8 | x8 | x8 | E,2 x6 | x8 | E,2 E,2 E,2 x2 | x8 | x8 | E,3 x5 | x8 | x8 | E,2 x6 | %15
 x8 | x8 | x8 | x8 | x8 | A,3 A, A,2 A,2 | x8 | x8 | x8 |] %24

